48x48/apps/net.openra.OpenRA.openra-cnc.svg

<svg xmlns="http://www.w3.org/2000/svg" width="48" height="48" version="1.1">
 <circle style="opacity:0.2" cx="24" cy="25" r="20"/>
 <circle style="fill:#8e8e8e" cx="24" cy="24" r="20"/>
 <circle style="fill:#17191e" cx="24" cy="24" r="15"/>
 <path style="opacity:0.1;fill:#f4f4f7" d="M 24,4 A 20,20 0 0 0 4,24 20,20 0 0 0 4.0215,24.582 20,20 0 0 1 24,5 20,20 0 0 1 43.979,24.418 20,20 0 0 0 44,24 20,20 0 0 0 24,4 Z"/>
 <path style="opacity:0.2" d="M 24,11 A 14,14 0 0 0 10,25 14,14 0 0 0 24,39 14,14 0 0 0 28.955078,38.076172 L 28.199219,35.15625 A 11,11 0 0 1 24,36 11,11 0 0 1 13,25 11,11 0 0 1 24,14 a 11,11 0 0 1 4.205078,0.841797 l 0.759766,-2.925781 A 14,14 0 0 0 24,11 Z"/>
 <path style="fill:#e13535" d="M 24 10 A 14 14 0 0 0 10 24 A 14 14 0 0 0 24 38 A 14 14 0 0 0 28.955078 37.076172 L 28.199219 34.15625 A 11 11 0 0 1 24 35 A 11 11 0 0 1 13 24 A 11 11 0 0 1 24 13 A 11 11 0 0 1 28.205078 13.841797 L 28.964844 10.916016 A 14 14 0 0 0 24 10 z"/>
 <path style="opacity:0.2" d="M 24,15 A 10,10 0 0 0 14,25 10,10 0 0 0 24,35 10,10 0 0 0 27.949219,34.185547 L 27.185547,31.232422 A 7,7 0 0 1 24,32 a 7,7 0 0 1 -7,-7 7,7 0 0 1 7,-7 7,7 0 0 1 3.185547,0.775391 l 0.763672,-2.949219 A 10,10 0 0 0 24,15 Z"/>
 <path style="fill:#e13535" d="M 24 14 A 10 10 0 0 0 14 24 A 10 10 0 0 0 24 34 A 10 10 0 0 0 27.949219 33.185547 L 27.185547 30.232422 A 7 7 0 0 1 24 31 A 7 7 0 0 1 17 24 A 7 7 0 0 1 24 17 A 7 7 0 0 1 27.185547 17.775391 L 27.949219 14.826172 A 10 10 0 0 0 24 14 z"/>
 <path style="opacity:0.2" d="m 26.940294,19.769895 a 6,6 0 0 0 -5.877825,0.0055 l 0.816211,3.10326 -3.108785,-0.818974 a 6,6 0 0 0 0.0055,5.877825 l 3.10326,-0.816211 -0.818974,3.108785 a 6,6 0 0 0 5.877825,-0.0055 l -0.816211,-3.10326 3.108785,0.818974 a 6,6 0 0 0 -0.0055,-5.877825 l -3.10326,0.816211 z"/>
 <path style="fill:#ffa92e" d="m 26.940294,18.769895 a 6,6 0 0 0 -5.877825,0.0055 l 0.816211,3.10326 -3.108785,-0.818974 a 6,6 0 0 0 0.0055,5.877825 l 3.10326,-0.816211 -0.818974,3.108785 a 6,6 0 0 0 5.877825,-0.0055 l -0.816211,-3.10326 3.108785,0.818974 a 6,6 0 0 0 -0.0055,-5.877825 l -3.10326,0.816211 z"/>
 <path style="fill:#f4f4f7;opacity:0.2" d="M 24 10 A 14 14 0 0 0 10 24 A 14 14 0 0 0 10.021484 24.414062 A 14 14 0 0 1 24 11 A 14 14 0 0 1 28.724609 11.837891 L 28.964844 10.916016 A 14 14 0 0 0 24 10 z M 13.021484 24.585938 A 11 11 0 0 0 13 25 A 11 11 0 0 0 24 36 A 11 11 0 0 0 28.199219 35.15625 L 28.716797 37.158203 A 14 14 0 0 0 28.955078 37.076172 L 28.199219 34.15625 A 11 11 0 0 1 24 35 A 11 11 0 0 1 13.021484 24.585938 z"/>
 <path style="opacity:0.2;fill:#f4f4f7" d="M 24 14 A 10 10 0 0 0 14 24 A 10 10 0 0 0 14.021484 24.414062 A 10 10 0 0 1 24 15 A 10 10 0 0 1 27.712891 15.738281 L 27.949219 14.826172 A 10 10 0 0 0 24 14 z M 17.023438 24.541016 A 7 7 0 0 0 17 25 A 7 7 0 0 0 24 32 A 7 7 0 0 0 27.185547 31.232422 L 27.712891 33.275391 A 10 10 0 0 0 27.949219 33.185547 L 27.185547 30.232422 A 7 7 0 0 1 24 31 A 7 7 0 0 1 17.023438 24.541016 z"/>
 <path style="opacity:0.2;fill:#f4f4f7" d="M 24.072266 18.003906 A 6 6 0 0 0 21.0625 18.775391 L 21.294922 19.65625 A 6 6 0 0 1 26.707031 19.654297 L 26.939453 18.769531 A 6 6 0 0 0 24.072266 18.003906 z M 18.769531 21.060547 A 6 6 0 0 0 18.029297 24.535156 A 6 6 0 0 1 18.769531 22.060547 L 21.878906 22.878906 L 21.595703 21.804688 L 18.769531 21.060547 z M 29.224609 21.0625 L 26.404297 21.804688 L 26.121094 22.878906 L 29.224609 22.0625 A 6 6 0 0 1 29.970703 24.464844 A 6 6 0 0 0 29.224609 21.0625 z M 21.878906 27.121094 L 21.595703 27.195312 L 21.060547 29.230469 A 6 6 0 0 0 21.292969 29.345703 L 21.878906 27.121094 z M 26.121094 27.121094 L 26.705078 29.34375 A 6 6 0 0 0 26.9375 29.224609 L 26.404297 27.195312 L 26.121094 27.121094 z"/>
</svg>

<svg xmlns="http://www.w3.org/2000/svg" width="48" height="48"><circle style="opacity:.2" cx="24" cy="25" r="20"/><circle style="fill:#8e8e8e" cx="24" cy="24" r="20"/><circle style="fill:#17191e" cx="24" cy="24" r="15"/><path style="opacity:.1;fill:#f4f4f7" d="M24 4A20 20 0 0 0 4 24a20 20 0 0 0 .021.582A20 20 0 0 1 24 5a20 20 0 0 1 19.979 19.418A20 20 0 0 0 44 24 20 20 0 0 0 24 4z"/><path style="opacity:.2" d="M24 11a14 14 0 0 0-14 14 14 14 0 0 0 14 14 14 14 0 0 0 4.955-.924l-.756-2.92A11 11 0 0 1 24 36a11 11 0 0 1-11-11 11 11 0 0 1 11-11 11 11 0 0 1 4.205.842l.76-2.926A14 14 0 0 0 24 11z"/><path style="fill:#e13535" d="M24 10a14 14 0 0 0-14 14 14 14 0 0 0 14 14 14 14 0 0 0 4.955-.924l-.756-2.92A11 11 0 0 1 24 35a11 11 0 0 1-11-11 11 11 0 0 1 11-11 11 11 0 0 1 4.205.842l.76-2.926A14 14 0 0 0 24 10z"/><path style="opacity:.2" d="M24 15a10 10 0 0 0-10 10 10 10 0 0 0 10 10 10 10 0 0 0 3.95-.814l-.764-2.954A7 7 0 0 1 24 32a7 7 0 0 1-7-7 7 7 0 0 1 7-7 7 7 0 0 1 3.186.775l.763-2.949A10 10 0 0 0 24 15z"/><path style="fill:#e13535" d="M24 14a10 10 0 0 0-10 10 10 10 0 0 0 10 10 10 10 0 0 0 3.95-.814l-.764-2.954A7 7 0 0 1 24 31a7 7 0 0 1-7-7 7 7 0 0 1 7-7 7 7 0 0 1 3.186.775l.763-2.949A10 10 0 0 0 24 14z"/><path style="opacity:.2" d="M26.94 19.77a6 6 0 0 0-5.878.005l.817 3.104-3.11-.82a6 6 0 0 0 .006 5.879l3.104-.817-.82 3.11a6 6 0 0 0 5.879-.006l-.817-3.104 3.11.82a6 6 0 0 0-.006-5.879l-3.104.817z"/><path style="fill:#ffa92e" d="M26.94 18.77a6 6 0 0 0-5.878.005l.817 3.104-3.11-.82a6 6 0 0 0 .006 5.879l3.104-.817-.82 3.11a6 6 0 0 0 5.879-.006l-.817-3.104 3.11.82a6 6 0 0 0-.006-5.879l-3.104.817z"/><path style="fill:#f4f4f7;opacity:.2" d="M24 10a14 14 0 0 0-14 14 14 14 0 0 0 .021.414A14 14 0 0 1 24 11a14 14 0 0 1 4.725.838l.24-.922A14 14 0 0 0 24 10zM13.021 24.586A11 11 0 0 0 13 25a11 11 0 0 0 11 11 11 11 0 0 0 4.2-.844l.517 2.002a14 14 0 0 0 .238-.082l-.756-2.92A11 11 0 0 1 24 35a11 11 0 0 1-10.979-10.414z"/><path style="opacity:.2;fill:#f4f4f7" d="M24 14a10 10 0 0 0-10 10 10 10 0 0 0 .021.414A10 10 0 0 1 24 15a10 10 0 0 1 3.713.738l.236-.912A10 10 0 0 0 24 14zm-6.977 10.541A7 7 0 0 0 17 25a7 7 0 0 0 7 7 7 7 0 0 0 3.186-.768l.527 2.043a10 10 0 0 0 .236-.09l-.763-2.953A7 7 0 0 1 24 31a7 7 0 0 1-6.977-6.459z"/><path style="opacity:.2;fill:#f4f4f7" d="M24.072 18.004a6 6 0 0 0-3.01.771l.233.881a6 6 0 0 1 5.412-.002l.232-.884a6 6 0 0 0-2.867-.766zM18.77 21.06a6 6 0 0 0-.74 3.474 6 6 0 0 1 .74-2.474l3.109.818-.283-1.074-2.826-.744zm10.455.002-2.82.742-.284 1.074 3.104-.817a6 6 0 0 1 .746 2.403 6 6 0 0 0-.746-3.402zm-7.346 6.058-.283.074-.535 2.035a6 6 0 0 0 .232.116l.586-2.225zm4.242 0 .584 2.223a6 6 0 0 0 .233-.12l-.534-2.029-.283-.074z"/></svg>
